X: 18805
T: If You Will Not Have Me, You May Let Me Go
R: three-two
M: 3/2
K: Bminor
|:F2BB B2d2 c2B2|A2cc c2e2 d2c2|d2f2 f2e2 d2cd|edcB ABcA B4:|
|:f2BB B2g2 f2b2|bagf edcB A4|B2dd d2B2 G2E2|edcB ABcA B4:|
|:B2dd d2f2 f2d2|e2gg g2c'2 c'2a2|b2d'd' d'2b2 g2e2|1 e4 f4 B4:|2 e4 f4 B2d'd'||
|:d'2bb b2gg g2e2|c'2aa a2ff f2d2|b2gg g2ee e2d2|1 e4 f4 B2d'd':|2 e4 f4 B4||

